assets/imgs/01.svg

<?xml version="1.0" encoding="UTF-8" standalone="no"?>
<svg
   width="60"
   height="21"
   viewBox="0 0 60 55"
   fill="none"
   version="1.1"
   id="svg9"
   sodipodi:docname="01.svg"
   inkscape:version="1.2.2 (b0a8486541, 2022-12-01)"
   xmlns:inkscape="http://www.inkscape.org/namespaces/inkscape"
   xmlns:sodipodi="http://sodipodi.sourceforge.net/DTD/sodipodi-0.dtd"
   xmlns="http://www.w3.org/2000/svg"
   xmlns:svg="http://www.w3.org/2000/svg">
  <defs
     id="defs13" />
  <sodipodi:namedview
     id="namedview11"
     pagecolor="#ffffff"
     bordercolor="#666666"
     borderopacity="1.0"
     inkscape:showpageshadow="2"
     inkscape:pageopacity="0.0"
     inkscape:pagecheckerboard="0"
     inkscape:deskcolor="#d1d1d1"
     showgrid="false"
     inkscape:zoom="6.6779661"
     inkscape:cx="-15.873096"
     inkscape:cy="32.120558"
     inkscape:window-width="2520"
     inkscape:window-height="1481"
     inkscape:window-x="2869"
     inkscape:window-y="24"
     inkscape:window-maximized="1"
     inkscape:current-layer="svg9" />
  <mask
     id="path-1-outside-1_285_102"
     maskUnits="userSpaceOnUse"
     x="-1"
     y="33"
     width="59"
     height="44"
     fill="#000000">
    <rect
       fill="#ffffff"
       x="-1"
       y="33"
       width="59"
       height="44"
       id="rect2" />
    <path
       d="m 24.6713,55.016 c 0,-9.152 -2.432,-15.68 -6.08,-15.68 -3.648,0 -6.08,6.528 -6.08,15.68 0,9.344 2.432,15.808 6.08,15.808 3.648,0 6.08,-6.464 6.08,-15.808 z m 9.92,0 c 0,11.52 -5.696,18.368 -16,18.368 -10.30405,0 -16.00005,-6.848 -16.00005,-18.368 0,-11.328 5.696,-18.24 16.00005,-18.24 10.304,0 16,6.912 16,18.24 z M 53.4763,37.16 v 32.256 l 0.64,3.584 h -10.944 l 0.704,-3.968 V 42.728 l -5.12,0.64 v -2.432 l 12.864,-3.776 z"
       id="path4" />
  </mask>
  <path
     d="m 27.6713,55.016 c 0,-4.7919 -0.6304,-9.1096 -1.8708,-12.3457 -1.1299,-2.9481 -3.3448,-6.3343 -7.2092,-6.3343 v 6 c 0.0019,0 0.002,1e-4 9e-4,0 -4e-4,-10e-5 -9e-4,-2e-4 -0.0014,-2e-4 -2e-4,-10e-5 -4e-4,-10e-5 -5e-4,-10e-5 -2e-4,-1e-4 -3e-4,-1e-4 -3e-4,-1e-4 0,0 10e-5,0 3e-4,1e-4 2e-4,0 6e-4,10e-5 0.001,3e-4 9e-4,2e-4 0.0024,7e-4 0.0045,0.0014 0.0041,0.0015 0.0116,0.0043 0.0225,0.0094 0.0427,0.0202 0.1542,0.0838 0.3209,0.2536 0.3541,0.3608 0.8135,1.0556 1.2588,2.2173 0.8876,2.3159 1.4733,5.8382 1.4733,10.1983 z m -9.08,-18.68 c -3.8645,0 -6.0794,3.3862 -7.2093,6.3343 -1.2404,3.2361 -1.87075,7.5538 -1.87075,12.3457 h 6.00005 c 0,-4.3601 0.5856,-7.8824 1.4732,-10.1983 0.4453,-1.1617 0.9047,-1.8565 1.2588,-2.2173 0.1667,-0.1698 0.2782,-0.2334 0.3209,-0.2536 0.0109,-0.0051 0.0184,-0.0079 0.0225,-0.0094 0.0022,-7e-4 0.0036,-0.0012 0.0045,-0.0014 5e-4,-2e-4 8e-4,-3e-4 10e-4,-3e-4 2e-4,-1e-4 3e-4,-1e-4 3e-4,-1e-4 0,0 -10e-5,0 -2e-4,1e-4 -2e-4,0 -4e-4,0 -6e-4,10e-5 -5e-4,0 -0.001,1e-4 -0.0014,2e-4 -0.0011,1e-4 -10e-4,0 0.001,0 z m -9.08005,18.68 c 0,4.8814 0.62885,9.2322 1.86965,12.479 1.1355,2.971 3.3529,6.329 7.2104,6.329 v -6 c -0.0016,0 -0.0027,0 -0.0033,-1e-4 -3e-4,0 -5e-4,0 -6e-4,0 -10e-5,0 -2e-4,0 -2e-4,0 0,0 0,0 10e-5,0 0,0 10e-5,0 10e-5,0 10e-5,0 0,0 -3e-4,-10e-5 -5e-4,-1e-4 -0.0027,-6e-4 -0.0072,-0.0022 -0.0045,-0.0015 -0.0121,-0.0044 -0.023,-0.0095 -0.0426,-0.02 -0.1529,-0.0824 -0.3178,-0.2497 -0.3506,-0.3559 -0.8088,-1.0456 -1.2535,-2.2094 -0.8872,-2.3212 -1.4743,-5.8744 -1.4743,-10.337 z m 9.08005,18.808 c 3.8574,0 6.0748,-3.358 7.2103,-6.329 1.2408,-3.2468 1.8697,-7.5976 1.8697,-12.479 h -6 c 0,4.4626 -0.5872,8.0158 -1.4744,10.337 -0.4447,1.1638 -0.9029,1.8535 -1.2535,2.2094 -0.1649,0.1673 -0.2752,0.2297 -0.3178,0.2497 -0.0109,0.0051 -0.0185,0.008 -0.023,0.0095 -0.0044,0.0016 -0.0067,0.0021 -0.0072,0.0022 -3e-4,10e-5 -4e-4,10e-5 -3e-4,10e-5 0,0 10e-5,0 10e-5,0 1e-4,0 1e-4,0 1e-4,0 0,0 -1e-4,0 -2e-4,0 -10e-5,0 -3e-4,0 -6e-4,0 -6e-4,1e-4 -0.0017,1e-4 -0.0032,1e-4 z m 13,-18.808 c 0,5.3044 -1.3132,9.1102 -3.4101,11.5474 -2.0398,2.3706 -5.1415,3.8206 -9.5899,3.8206 v 6 c 5.8555,0 10.7538,-1.974 14.1381,-5.9074 3.327,-3.8668 4.8619,-9.245 4.8619,-15.4606 z m -13,15.368 c -4.4485,0 -7.5502,-1.45 -9.58995,-3.8206 C 6.9044,64.1262 5.59125,60.3204 5.59125,55.016 h -6 c 0,6.2156 1.53485,11.5938 4.8619,15.4606 C 7.83744,74.41 12.7357,76.384 18.5913,76.384 Z M 5.59125,55.016 c 0,-5.1973 1.30777,-8.9741 3.40764,-11.4085 2.04471,-2.3704 5.15181,-3.8315 9.59241,-3.8315 v -6 c -5.8635,0 -10.75639,1.9949 -14.13569,5.9125 -3.32413,3.8536 -4.86436,9.1968 -4.86436,15.3275 z M 18.5913,39.776 c 4.4405,0 7.5476,1.4611 9.5923,3.8315 2.0999,2.4344 3.4077,6.2112 3.4077,11.4085 h 6 c 0,-6.1307 -1.5403,-11.4739 -4.8644,-15.3275 C 29.3476,35.7709 24.4547,33.776 18.5913,33.776 Z M 53.4762,37.16 h 3 v -3 h -3 z m 0,32.256 h -3 v 0.2658 l 0.0468,0.2616 z m 0.64,3.584 v 3 h 3.5832 L 57.0695,72.4726 Z M 43.1722,73 40.2184,72.4759 39.5931,76 h 3.5791 z m 0.7041,-3.968 2.9538,0.5241 0.0462,-0.26 V 69.032 Z m 0,-26.304 h 3 v -3.3983 l -3.3722,0.4215 z m -5.1201,0.64 h -3 v 3.3983 l 3.3722,-0.4215 z m 0,-2.432 -0.8449,-2.8786 -2.1551,0.6326 v 2.246 z M 51.6203,37.16 v -3 H 51.189 l -0.4137,0.1214 z m -1.1441,0 v 32.256 h 6 V 37.16 Z m 0.0468,32.7834 0.64,3.584 5.9065,-1.0548 -0.64,-3.584 z M 54.1162,70 h -10.944 v 6 h 10.944 z m -7.9901,3.5241 0.704,-3.968 -5.9077,-1.0482 -0.704,3.968 z M 46.8763,69.032 V 42.728 h -6 v 26.304 z m -3.3722,-29.2808 -5.12,0.64 0.7443,5.9536 5.12,-0.64 z m -1.7479,3.6168 v -2.432 h -6 v 2.432 z m -2.155,0.4465 12.864,-3.7759 -1.6899,-5.7572 -12.864,3.776 z M 51.6203,40.16 h 1.8559 v -6 h -1.8559 z"
     fill="#ffffff"
     mask="url(#path-1-outside-1_285_102)"
     id="path7"
     transform="translate(1.3235819,-26.914485)" />
</svg>

<svg width="57" height="25" viewBox="0 0 57 118" fill="none" xmlns="http://www.w3.org/2000/svg">
<mask id="path-1-outside-1_285_102" maskUnits="userSpaceOnUse" x="-1" y="33" width="59" height="44" fill="black">
<rect fill="white" x="-1" y="33" width="59" height="44"/>
<path d="M24.6713 55.016C24.6713 45.864 22.2393 39.336 18.5913 39.336C14.9433 39.336 12.5113 45.864 12.5113 55.016C12.5113 64.36 14.9433 70.824 18.5913 70.824C22.2393 70.824 24.6713 64.36 24.6713 55.016ZM34.5913 55.016C34.5913 66.536 28.8953 73.384 18.5913 73.384C8.28725 73.384 2.59125 66.536 2.59125 55.016C2.59125 43.688 8.28725 36.776 18.5913 36.776C28.8953 36.776 34.5913 43.688 34.5913 55.016ZM53.4763 37.16V69.416L54.1163 73H43.1723L43.8763 69.032V42.728L38.7563 43.368V40.936L51.6203 37.16H53.4763Z"/>
</mask>
<path d="M27.6713 55.016C27.6713 50.2241 27.0409 45.9064 25.8005 42.6703C24.6706 39.7222 22.4557 36.336 18.5913 36.336V42.336C18.5932 42.336 18.5933 42.3361 18.5922 42.336C18.5918 42.3359 18.5913 42.3358 18.5908 42.3358C18.5906 42.3357 18.5904 42.3357 18.5903 42.3357C18.5901 42.3356 18.59 42.3356 18.59 42.3356C18.59 42.3356 18.5901 42.3356 18.5903 42.3357C18.5905 42.3357 18.5909 42.3358 18.5913 42.336C18.5922 42.3362 18.5937 42.3367 18.5958 42.3374C18.5999 42.3389 18.6074 42.3417 18.6183 42.3468C18.661 42.367 18.7725 42.4306 18.9392 42.6004C19.2933 42.9612 19.7527 43.656 20.198 44.8177C21.0856 47.1336 21.6713 50.6559 21.6713 55.016H27.6713ZM18.5913 36.336C14.7268 36.336 12.5119 39.7222 11.382 42.6703C10.1416 45.9064 9.51125 50.2241 9.51125 55.016H15.5113C15.5113 50.6559 16.0969 47.1336 16.9845 44.8177C17.4298 43.656 17.8892 42.9612 18.2433 42.6004C18.41 42.4306 18.5215 42.367 18.5642 42.3468C18.5751 42.3417 18.5826 42.3389 18.5867 42.3374C18.5889 42.3367 18.5903 42.3362 18.5912 42.336C18.5917 42.3358 18.592 42.3357 18.5922 42.3357C18.5924 42.3356 18.5925 42.3356 18.5925 42.3356C18.5925 42.3356 18.5924 42.3356 18.5923 42.3357C18.5921 42.3357 18.5919 42.3357 18.5917 42.3358C18.5912 42.3358 18.5907 42.3359 18.5903 42.336C18.5892 42.3361 18.5893 42.336 18.5913 42.336V36.336ZM9.51125 55.016C9.51125 59.8974 10.1401 64.2482 11.3809 67.495C12.5164 70.466 14.7338 73.824 18.5913 73.824V67.824C18.5897 67.824 18.5886 67.824 18.588 67.8239C18.5877 67.8239 18.5875 67.8239 18.5874 67.8239C18.5873 67.8239 18.5872 67.8239 18.5872 67.8239C18.5872 67.8239 18.5872 67.8239 18.5873 67.8239C18.5873 67.8239 18.5874 67.8239 18.5874 67.8239C18.5875 67.8239 18.5874 67.8239 18.5871 67.8238C18.5866 67.8237 18.5844 67.8232 18.5799 67.8216C18.5754 67.8201 18.5678 67.8172 18.5569 67.8121C18.5143 67.7921 18.404 67.7297 18.2391 67.5624C17.8885 67.2065 17.4303 66.5168 16.9856 65.353C16.0984 63.0318 15.5113 59.4786 15.5113 55.016H9.51125ZM18.5913 73.824C22.4487 73.824 24.6661 70.466 25.8016 67.495C27.0424 64.2482 27.6713 59.8974 27.6713 55.016H21.6713C21.6713 59.4786 21.0841 63.0318 20.1969 65.353C19.7522 66.5168 19.294 67.2065 18.9434 67.5624C18.7785 67.7297 18.6682 67.7921 18.6256 67.8121C18.6147 67.8172 18.6071 67.8201 18.6026 67.8216C18.5982 67.8232 18.5959 67.8237 18.5954 67.8238C18.5951 67.8239 18.595 67.8239 18.5951 67.8239C18.5951 67.8239 18.5952 67.8239 18.5952 67.8239C18.5953 67.8239 18.5953 67.8239 18.5953 67.8239C18.5953 67.8239 18.5952 67.8239 18.5951 67.8239C18.595 67.8239 18.5948 67.8239 18.5945 67.8239C18.5939 67.824 18.5928 67.824 18.5913 67.824V73.824ZM31.5913 55.016C31.5913 60.3204 30.2781 64.1262 28.1812 66.5634C26.1414 68.934 23.0397 70.384 18.5913 70.384V76.384C24.4468 76.384 29.3451 74.41 32.7294 70.4766C36.0564 66.6098 37.5913 61.2316 37.5913 55.016H31.5913ZM18.5913 70.384C14.1428 70.384 11.0411 68.934 9.00135 66.5634C6.9044 64.1262 5.59125 60.3204 5.59125 55.016H-0.40875C-0.40875 61.2316 1.1261 66.6098 4.45315 70.4766C7.83744 74.41 12.7357 76.384 18.5913 76.384V70.384ZM5.59125 55.016C5.59125 49.8187 6.89902 46.0419 8.99889 43.6075C11.0436 41.2371 14.1507 39.776 18.5913 39.776V33.776C12.7278 33.776 7.83491 35.7709 4.45561 39.6885C1.13148 43.5421 -0.40875 48.8853 -0.40875 55.016H5.59125ZM18.5913 39.776C23.0318 39.776 26.1389 41.2371 28.1836 43.6075C30.2835 46.0419 31.5913 49.8187 31.5913 55.016H37.5913C37.5913 48.8853 36.051 43.5421 32.7269 39.6885C29.3476 35.7709 24.4547 33.776 18.5913 33.776V39.776ZM53.4762 37.16H56.4762V34.16H53.4762V37.16ZM53.4762 69.416H50.4762V69.6818L50.523 69.9434L53.4762 69.416ZM54.1162 73V76H57.6994L57.0695 72.4726L54.1162 73ZM43.1722 73L40.2184 72.4759L39.5931 76H43.1722V73ZM43.8763 69.032L46.8301 69.5561L46.8763 69.2961V69.032H43.8763ZM43.8763 42.728H46.8763V39.3297L43.5041 39.7512L43.8763 42.728ZM38.7562 43.368H35.7562V46.7663L39.1284 46.3448L38.7562 43.368ZM38.7562 40.936L37.9113 38.0574L35.7562 38.69V40.936H38.7562ZM51.6203 37.16V34.16H51.189L50.7753 34.2814L51.6203 37.16ZM50.4762 37.16V69.416H56.4762V37.16H50.4762ZM50.523 69.9434L51.163 73.5274L57.0695 72.4726L56.4295 68.8886L50.523 69.9434ZM54.1162 70H43.1722V76H54.1162V70ZM46.1261 73.5241L46.8301 69.5561L40.9224 68.5079L40.2184 72.4759L46.1261 73.5241ZM46.8763 69.032V42.728H40.8763V69.032H46.8763ZM43.5041 39.7512L38.3841 40.3912L39.1284 46.3448L44.2484 45.7048L43.5041 39.7512ZM41.7562 43.368V40.936H35.7562V43.368H41.7562ZM39.6012 43.8145L52.4652 40.0386L50.7753 34.2814L37.9113 38.0574L39.6012 43.8145ZM51.6203 40.16H53.4762V34.16H51.6203V40.16Z" fill="white" mask="url(#path-1-outside-1_285_102)"/>
</svg>
